assets/afupday/afup-day-editable.svg

<?xml version="1.0" encoding="UTF-8" standalone="no"?>
<svg
   xmlns:dc="http://purl.org/dc/elements/1.1/"
   xmlns:cc="http://creativecommons.org/ns#"
   xmlns:rdf="http://www.w3.org/1999/02/22-rdf-syntax-ns#"
   xmlns:svg="http://www.w3.org/2000/svg"
   xmlns="http://www.w3.org/2000/svg"
   xmlns:sodipodi="http://sodipodi.sourceforge.net/DTD/sodipodi-0.dtd"
   xmlns:inkscape="http://www.inkscape.org/namespaces/inkscape"
   width="252"
   height="241"
   viewBox="0 0 252 241"
   version="1.1"
   id="svg76"
   sodipodi:docname="afup-day-editable2.svg"
   inkscape:version="0.92.2 (5c3e80d, 2017-08-06)">
  <metadata
     id="metadata82">
    <rdf:RDF>
      <cc:Work
         rdf:about="">
        <dc:format>image/svg+xml</dc:format>
        <dc:type
           rdf:resource="http://purl.org/dc/dcmitype/StillImage" />
        <dc:title />
      </cc:Work>
    </rdf:RDF>
  </metadata>
  <defs
     id="defs80" />
  <sodipodi:namedview
     pagecolor="#ffffff"
     bordercolor="#666666"
     borderopacity="1"
     objecttolerance="10"
     gridtolerance="10"
     guidetolerance="10"
     inkscape:pageopacity="0"
     inkscape:pageshadow="2"
     inkscape:window-width="1853"
     inkscape:window-height="1025"
     id="namedview78"
     showgrid="false"
     inkscape:zoom="7.8340249"
     inkscape:cx="34.995865"
     inkscape:cy="41.373283"
     inkscape:window-x="67"
     inkscape:window-y="27"
     inkscape:window-maximized="1"
     inkscape:current-layer="g74" />
  <g
     fill="none"
     fill-rule="evenodd"
     transform="translate(-.078)"
     id="g74">
    <path
       fill="#234077"
       fill-rule="nonzero"
       d="M0.388273349,182.705471 L0.388273349,117.118852 L0.388273349,34.6852193 L128.063614,0.475744605 C132.339404,-0.670625001 135.811056,1.99373952 135.811056,6.4206998 L135.811056,47.464301 L212.551683,27.3073021 C216.989141,26.1420363 220.592017,28.9208278 220.592017,33.5084058 L220.592017,123.702079 L242.184078,117.916692 C247.208368,116.570862 251.287848,119.700283 251.287848,124.901988 L251.287848,163.640252 C251.287848,168.841957 247.208368,174.158088 242.184078,175.504968 L0.388273349,240.293747 L0.388273349,182.705471 Z"
       id="path2" />
    <polygon
       fill="#476BBC"
       fill-rule="nonzero"
       points="37.115 24.955 .385 34.814 37.115 67.365"
       id="polygon4" />
    <polygon
       fill="#3F73BD"
       fill-rule="nonzero"
       points="110.296 47.56 73.567 57.418 110.296 89.97"
       id="polygon6" />
    <polygon
       fill="#487DC8"
       fill-rule="nonzero"
       points="73.605 99.842 36.875 109.701 73.605 142.252"
       id="polygon8" />
    <polygon
       fill="#425DA2"
       fill-rule="nonzero"
       points="147.017 122.509 110.287 132.368 147.017 164.92"
       id="polygon10" />
    <polygon
       fill="#6AAEE3"
       fill-rule="nonzero"
       points="183.703 70.236 146.974 80.095 183.703 112.647"
       id="polygon12" />
    <polygon
       fill="#498CD2"
       fill-rule="nonzero"
       points="37.115 152.181 .385 162.04 37.115 194.591"
       id="polygon14" />
    <polygon
       fill="#487DC8"
       fill-rule="nonzero"
       points="73.605 15.077 36.875 24.935 73.605 57.487"
       id="polygon16" />
    <polygon
       fill="#487DC8"
       fill-rule="nonzero"
       points="110.341 5.257 73.611 15.116 110.341 47.668"
       id="polygon18" />
    <polygon
       fill="#2F5296"
       fill-rule="nonzero"
       points="110.296 89.912 73.567 99.771 110.296 132.322"
       id="polygon20" />
    <polygon
       fill="#476BBC"
       fill-rule="nonzero"
       points="37.115 67.363 .385 77.222 37.115 109.774"
       id="polygon22" />
    <polygon
       fill="#487DC8"
       fill-rule="nonzero"
       points="73.605 142.24 36.875 152.098 73.605 184.65"
       id="polygon24" />
    <polygon
       fill="#425DA2"
       fill-rule="nonzero"
       points="73.605 57.378 36.875 67.237 73.605 99.789"
       id="polygon26" />
    <polygon
       fill="#325295"
       fill-rule="nonzero"
       points="147.017 80.056 110.287 89.915 147.017 122.467"
       id="polygon28" />
    <polygon
       fill="#3A64AD"
       fill-rule="nonzero"
       points="220.43 144.735 183.7 154.594 215.395 182.664 220.43 181.328"
       id="polygon30" />
    <polygon
       fill="#3A64AD"
       fill-rule="nonzero"
       points="220.43 102.735 183.7 112.594 220.43 145.146"
       id="polygon32" />
    <polygon
       fill="#7F9AD6"
       fill-rule="nonzero"
       points="110.296 132.304 73.567 142.163 110.296 174.715"
       id="polygon34" />
    <polygon
       fill="#4C9EDC"
       fill-rule="nonzero"
       points="37.115 109.772 .385 119.631 37.115 152.182"
       id="polygon36" />
    <polygon
       fill="#476BBC"
       fill-rule="nonzero"
       points="36.875 67.289 73.605 57.43 36.875 24.879"
       id="polygon38" />
    <polygon
       fill="#3A64AD"
       fill-rule="nonzero"
       points="110.287 89.967 147.017 80.108 110.287 47.557"
       id="polygon40" />
    <polygon
       fill="#425DA2"
       fill-rule="nonzero"
       points="73.567 142.238 110.296 132.379 73.567 99.827"
       id="polygon42" />
    <polygon
       fill="#325295"
       fill-rule="nonzero"
       points="183.7 112.646 220.43 102.787 183.7 70.235"
       id="polygon44" />
    <polygon
       fill="#498CD2"
       fill-rule="nonzero"
       points=".385 119.632 37.115 109.773 .385 77.221"
       id="polygon46" />
    <polygon
       fill="#7F9AD6"
       fill-rule="nonzero"
       points="36.875 194.515 73.605 184.656 36.875 152.104"
       id="polygon48" />
    <polygon
       fill="#7F9AD6"
       fill-rule="nonzero"
       points="73.567 57.475 110.296 47.616 73.567 15.065"
       id="polygon50" />
    <polygon
       fill="#727EBD"
       fill-rule="nonzero"
       points="36.875 109.641 73.605 99.782 36.875 67.231"
       id="polygon52" />
    <polygon
       fill="#32549D"
       fill-rule="nonzero"
       points="183.7 154.998 220.43 145.139 183.7 112.588"
       id="polygon54" />
    <polygon
       fill="#6495D5"
       fill-rule="nonzero"
       points="73.567 184.572 110.296 174.713 73.567 142.162"
       id="polygon56" />
    <polygon
       fill="#50A0DD"
       fill-rule="nonzero"
       points=".385 162.04 37.115 152.182 .385 119.63"
       id="polygon58" />
    <polygon
       fill="#3A64AD"
       fill-rule="nonzero"
       points="73.567 99.777 110.296 89.918 73.567 57.366"
       id="polygon60" />
    <polygon
       fill="#487DC8"
       fill-rule="nonzero"
       points="147.017 122.467 183.746 112.608 147.017 80.056"
       id="polygon62" />
    <polygon
       fill="#2F5296"
       fill-rule="nonzero"
       points=".385 77.223 37.115 67.364 .385 34.813"
       id="polygon64" />
    <polygon
       fill="#476BBC"
       fill-rule="nonzero"
       points="110.287 174.712 147.017 164.853 110.287 132.301"
       id="polygon66" />
    <polygon
       fill="#7F9AD6"
       fill-rule="nonzero"
       points="36.875 152.109 73.605 142.251 36.875 109.699"
       id="polygon68" />
    <path
       style="fill:#ffffff"
       inkscape:connector-curvature="0"
       id="path70"
       d="m 129.649,149.23207 -4.33248,-15.39306 -22.27652,5.9691 -4.333529,17.71519 -17.276378,4.62957 25.275767,-87.657381 14.94375,-4.003896 25.44374,74.066817 z m -15.49908,-54.843079 -7.55534,30.856449 15.11067,-4.04904 z m 44.5373,-33.822103 12.22164,33.056806 12.166,-39.590693 17.77713,-4.763942 -21.66554,57.358371 v 29.33216 l -16.55518,4.43535 V 111.06279 L 140.91114,65.330831 Z M 43.376291,172.34947 22.433,177.96164 V 97.076451 l 21.387352,-5.730799 v 0 c 9.443902,-2.530691 16.971239,-1.547739 22.582011,2.948858 v 0 0 c 5.610772,4.495896 8.471798,11.95115 8.583075,22.36576 v 0 13.10976 0 c 0,10.62946 -2.805386,19.72344 -8.416158,27.28192 v 0 0 c -5.610773,7.55848 -13.341769,12.65765 -23.192989,15.29752 z m 1.333232,-67.6316 -5.943905,1.59253 v 53.7198 l 4.888867,-1.31014 v 0 c 5.443506,-1.45851 9.276636,-3.92061 11.499389,-7.38631 v 0 0 c 2.222053,-3.46571 3.388369,-8.7318 3.498947,-15.79828 v 0 -14.05457 0 c 0,-7.55499 -1.055388,-12.54043 -3.166164,-14.95635 v 0 0 c -2.110776,-2.41591 -5.703154,-3.01814 -10.777134,-1.80668 z m -1.947359,-27.543584 -4.927709,1.320635 v 0 c -0.285543,-0.54869 -0.490952,-1.547039 -0.616226,-2.995048 v 0 0 c -1.678263,2.913515 -3.820883,4.719501 -6.427859,5.417961 v 0 0 c -2.625172,0.703359 -4.67436,0.515797 -6.147564,-0.562687 v 0 0 C 23.169602,79.277364 22.433,77.398941 22.433,74.71988 v 0 0 c 0,-2.945708 1.000099,-5.552684 3.000297,-7.820928 v 0 0 c 1.999498,-2.267545 4.740497,-3.885969 8.222997,-4.855275 v 0 l 3.481101,-0.932212 v -3.080081 0 c 0,-1.732152 -0.383873,-2.861375 -1.151619,-3.387669 v 0 0 c -0.767745,-0.526295 -1.93721,-0.579134 -3.508395,-0.158519 v 0 0 c -1.428413,0.382824 -2.589129,1.118026 -3.48215,2.205607 v 0 0 c -0.89302,1.087582 -1.339531,2.282941 -1.339531,3.586079 v 0 l -4.739797,1.270245 v 0 c 0,-1.482302 0.437412,-3.014644 1.312236,-4.597026 v 0 0 c 0.874824,-1.582382 2.053387,-2.956206 3.53569,-4.121472 v 0 0 c 1.481602,-1.164565 3.13327,-1.991099 4.955004,-2.479601 v 0 0 c 2.963904,-0.793641 5.218151,-0.661017 6.762741,0.39787 v 0 0 c 1.544589,1.059587 2.33473,2.995048 2.370423,5.806383 v 0 14.624611 0 c 0.0175,2.226952 0.320886,4.082979 0.910167,5.568081 v 0 z M 31.512625,76.41214 v 0 0 c 1.161067,-0.310738 2.268244,-0.928714 3.321533,-1.853928 v 0 0 c 1.053988,-0.925214 1.821733,-1.934411 2.303237,-3.027591 v 0 -6.910761 l -2.678012,0.718055 v 0 c -2.250048,0.638272 -4.026641,1.618775 -5.329779,2.941509 v 0 0 c -1.303838,1.322034 -1.955757,2.858226 -1.955757,4.608574 v 0 0 c 0,1.64257 0.330334,2.745898 0.991001,3.309985 v 0 0 c 0.660667,0.564086 1.776593,0.635472 3.347777,0.214157 z M 56.021,73.621801 51.280152,74.892045 V 49.74225 l -3.777141,1.011996 v -3.83068 l 3.777141,-1.011996 v -3.347777 0 c 0.05319,-2.960406 0.79854,-5.459253 2.236051,-7.496544 v 0 0 c 1.437511,-2.036591 3.468853,-3.406565 6.094025,-4.109924 v 0 0 c 0.94621,-0.253349 1.901518,-0.357628 2.865924,-0.312837 v 0 l -0.241451,4.082629 v 0 c -0.678864,0.021 -1.402168,0.134373 -2.169914,0.340132 v 0 0 C 57.368929,35.789504 56.021,38.070346 56.021,41.909774 v 0 2.731551 l 4.955004,-1.327983 v 3.83068 L 56.021,48.472005 Z m 25.417491,-6.811032 -0.107078,-2.515294 v 0 c -1.571185,2.474702 -3.865673,4.116223 -6.883467,4.92456 v 0 0 c -2.624472,0.703359 -4.606474,0.328234 -5.946005,-1.125374 v 0 0 C 67.16311,66.641054 66.484597,64.184547 66.4664,60.725142 v 0 -18.882555 l 4.714603,-1.262896 v 18.534025 0 c 0,4.517592 1.357027,6.412811 4.071082,5.685658 v 0 0 c 2.875022,-0.769846 4.857023,-2.586681 5.946005,-5.450505 v 0 -21.453488 l 4.740847,-1.270245 V 65.605612 Z M 114.0082,41.825791 v 3.160915 0 c 0,4.588977 -0.82584,8.229645 -2.47751,10.922004 v 0 0 c -1.65166,2.692359 -3.98605,4.443058 -7.00314,5.252095 v 0 0 c -2.91071,0.779643 -5.151664,0.281693 -6.722848,-1.49385 v 0 13.901306 l -4.714603,1.262896 V 34.708221 l 4.285239,-1.147419 0.241452,3.149367 v 0 c 1.58938,-2.926112 3.86602,-4.786338 6.82993,-5.580679 v 0 0 c 3.17806,-0.851028 5.55303,-0.380023 7.12491,1.413017 v 0 0 c 1.57119,1.793039 2.38338,4.887467 2.43657,9.283284 z m -4.71356,4.611723 v -2.893219 0 c 0,-3.249447 -0.50005,-5.512442 -1.50015,-6.788985 v 0 0 c -1.00009,-1.277244 -2.60697,-1.619125 -4.82063,-1.025644 v 0 0 c -2.26824,0.607478 -3.991295,2.203157 -5.169158,4.787038 v 0 15.079169 0 c 1.160367,1.903618 2.901268,2.544339 5.222698,1.922164 v 0 0 c 2.14227,-0.574585 3.71801,-1.769244 4.7272,-3.58398 v 0 0 c 1.0085,-1.814735 1.52185,-4.313583 1.54004,-7.496543 z"
       sodipodi:nodetypes="ccccccccccccccccccccccccccccccccccccccccccccccccccccccccccccccccccccccccccccccccccccccccccccccccccccccccccccccccccccccccccccccccccccccccccccccccccccccccccccccccccccccccccccccccccccccccccccccccccccccccccccccccccccccccccccccccccc" />
    <text
       x="20.111666"
       y="229.78085"
       style="font-size:38px;font-family:'Roboto Condensed';text-transform:uppercase;fill:#ffffff"
       id="text74"
       transform="matrix(1.0352762,-0.25881905,0,0.96592581,0,0)">2019</text>
  </g>
</svg>

<?xml version="1.0" encoding="UTF-8" standalone="no"?>
<svg
   xmlns:dc="http://purl.org/dc/elements/1.1/"
   xmlns:cc="http://creativecommons.org/ns#"
   xmlns:rdf="http://www.w3.org/1999/02/22-rdf-syntax-ns#"
   xmlns:svg="http://www.w3.org/2000/svg"
   xmlns="http://www.w3.org/2000/svg"
   xmlns:sodipodi="http://sodipodi.sourceforge.net/DTD/sodipodi-0.dtd"
   xmlns:inkscape="http://www.inkscape.org/namespaces/inkscape"
   width="287"
   height="241"
   viewBox="0 0 287 241"
   version="1.1"
   id="svg76"
   sodipodi:docname="afup-day-editable.svg"
   inkscape:version="0.92.2 (5c3e80d, 2017-08-06)">
  <metadata
     id="metadata82">
    <rdf:RDF>
      <cc:Work
         rdf:about="">
        <dc:format>image/svg+xml</dc:format>
        <dc:type
           rdf:resource="http://purl.org/dc/dcmitype/StillImage" />
        <dc:title />
      </cc:Work>
    </rdf:RDF>
  </metadata>
  <defs
     id="defs80" />
  <sodipodi:namedview
     pagecolor="#ffffff"
     bordercolor="#666666"
     borderopacity="1"
     objecttolerance="10"
     gridtolerance="10"
     guidetolerance="10"
     inkscape:pageopacity="0"
     inkscape:pageshadow="2"
     inkscape:window-width="1853"
     inkscape:window-height="1025"
     id="namedview78"
     showgrid="false"
     inkscape:zoom="2.7697461"
     inkscape:cx="63.855001"
     inkscape:cy="107.07943"
     inkscape:window-x="67"
     inkscape:window-y="27"
     inkscape:window-maximized="1"
     inkscape:current-layer="svg76" />
  <style
     id="style2">@import url('https://fonts.googleapis.com/css?family=Roboto+Condensed');</style>
  <path
     fill="#234077"
     fill-rule="nonzero"
     d="M0.388273349,182.705471 L0.388273349,117.118852 L0.388273349,34.6852193 L128.063614,0.475744605 C132.339404,-0.670625001 135.811056,1.99373952 135.811056,6.4206998 L135.811056,47.464301 L212.551683,27.3073021 C216.989141,26.1420363 220.592017,28.9208278 220.592017,33.5084058 L220.592017,123.702079 L277.184078,108.916692 C282.208368,107.570862 286.287848,110.700283 286.287848,115.901988 L286.287848,154.640252 C286.287848,159.841957 282.208368,165.158088 277.184078,166.504968 L0.388273349,240.293747 L0.388273349,182.705471 Z"
     id="path4" />
  <polygon
     fill="#476BBC"
     fill-rule="nonzero"
     points="37.115 24.955 .385 34.814 37.115 67.365"
     id="polygon6" />
  <polygon
     fill="#3F73BD"
     fill-rule="nonzero"
     points="110.296 47.56 73.567 57.418 110.296 89.97"
     id="polygon8" />
  <polygon
     fill="#487DC8"
     fill-rule="nonzero"
     points="73.605 99.842 36.875 109.701 73.605 142.252"
     id="polygon10" />
  <polygon
     fill="#425DA2"
     fill-rule="nonzero"
     points="147.017 122.509 110.287 132.368 147.017 164.92"
     id="polygon12" />
  <polygon
     fill="#6AAEE3"
     fill-rule="nonzero"
     points="183.703 70.236 146.974 80.095 183.703 112.647"
     id="polygon14" />
  <polygon
     fill="#498CD2"
     fill-rule="nonzero"
     points="37.115 152.181 .385 162.04 37.115 194.591"
     id="polygon16" />
  <polygon
     fill="#487DC8"
     fill-rule="nonzero"
     points="73.605 15.077 36.875 24.935 73.605 57.487"
     id="polygon18" />
  <polygon
     fill="#487DC8"
     fill-rule="nonzero"
     points="110.341 5.257 73.611 15.116 110.341 47.668"
     id="polygon20" />
  <polygon
     fill="#2F5296"
     fill-rule="nonzero"
     points="110.296 89.912 73.567 99.771 110.296 132.322"
     id="polygon22" />
  <polygon
     fill="#476BBC"
     fill-rule="nonzero"
     points="37.115 67.363 .385 77.222 37.115 109.774"
     id="polygon24" />
  <polygon
     fill="#487DC8"
     fill-rule="nonzero"
     points="73.605 142.24 36.875 152.098 73.605 184.65"
     id="polygon26" />
  <polygon
     fill="#425DA2"
     fill-rule="nonzero"
     points="73.605 57.378 36.875 67.237 73.605 99.789"
     id="polygon28" />
  <polygon
     fill="#325295"
     fill-rule="nonzero"
     points="147.017 80.056 110.287 89.915 147.017 122.467"
     id="polygon30" />
  <polygon
     fill="#3A64AD"
     fill-rule="nonzero"
     points="220.43 144.735 183.7 154.594 215.395 182.664 220.43 181.328"
     id="polygon32" />
  <polygon
     fill="#3A64AD"
     fill-rule="nonzero"
     points="220.43 102.735 183.7 112.594 220.43 145.146"
     id="polygon34" />
  <polygon
     fill="#7F9AD6"
     fill-rule="nonzero"
     points="110.296 132.304 73.567 142.163 110.296 174.715"
     id="polygon36" />
  <polygon
     fill="#4C9EDC"
     fill-rule="nonzero"
     points="37.115 109.772 .385 119.631 37.115 152.182"
     id="polygon38" />
  <polygon
     fill="#476BBC"
     fill-rule="nonzero"
     points="36.875 67.289 73.605 57.43 36.875 24.879"
     id="polygon40" />
  <polygon
     fill="#3A64AD"
     fill-rule="nonzero"
     points="110.287 89.967 147.017 80.108 110.287 47.557"
     id="polygon42" />
  <polygon
     fill="#425DA2"
     fill-rule="nonzero"
     points="73.567 142.238 110.296 132.379 73.567 99.827"
     id="polygon44" />
  <polygon
     fill="#325295"
     fill-rule="nonzero"
     points="183.7 112.646 220.43 102.787 183.7 70.235"
     id="polygon46" />
  <polygon
     fill="#498CD2"
     fill-rule="nonzero"
     points=".385 119.632 37.115 109.773 .385 77.221"
     id="polygon48" />
  <polygon
     fill="#7F9AD6"
     fill-rule="nonzero"
     points="36.875 194.515 73.605 184.656 36.875 152.104"
     id="polygon50" />
  <polygon
     fill="#7F9AD6"
     fill-rule="nonzero"
     points="73.567 57.475 110.296 47.616 73.567 15.065"
     id="polygon52" />
  <polygon
     fill="#727EBD"
     fill-rule="nonzero"
     points="36.875 109.641 73.605 99.782 36.875 67.231"
     id="polygon54" />
  <polygon
     fill="#32549D"
     fill-rule="nonzero"
     points="183.7 154.998 220.43 145.139 183.7 112.588"
     id="polygon56" />
  <polygon
     fill="#6495D5"
     fill-rule="nonzero"
     points="73.567 184.572 110.296 174.713 73.567 142.162"
     id="polygon58" />
  <polygon
     fill="#50A0DD"
     fill-rule="nonzero"
     points=".385 162.04 37.115 152.182 .385 119.63"
     id="polygon60" />
  <polygon
     fill="#3A64AD"
     fill-rule="nonzero"
     points="73.567 99.777 110.296 89.918 73.567 57.366"
     id="polygon62" />
  <polygon
     fill="#487DC8"
     fill-rule="nonzero"
     points="147.017 122.467 183.746 112.608 147.017 80.056"
     id="polygon64" />
  <polygon
     fill="#2F5296"
     fill-rule="nonzero"
     points=".385 77.223 37.115 67.364 .385 34.813"
     id="polygon66" />
  <polygon
     fill="#476BBC"
     fill-rule="nonzero"
     points="110.287 174.712 147.017 164.853 110.287 132.301"
     id="polygon68" />
  <polygon
     fill="#7F9AD6"
     fill-rule="nonzero"
     points="36.875 152.109 73.605 142.251 36.875 109.699"
     id="polygon70" />
  <path
     fill="#FFF"
     d="M 129.649 149.232 L 125.316 133.839 L 103.04 139.808 L 98.706 157.523 L 81.43 162.153 L 106.706 74.496 L 121.649 70.492 L 147.093 144.559 L 129.649 149.232 L 129.649 149.232 Z M 114.15 94.389 L 106.594 125.246 L 121.705 121.197 L 114.15 94.389 L 114.15 94.389 Z M 158.687 60.567 L 170.909 93.624 L 183.075 54.033 L 200.852 49.269 L 179.186 106.628 L 179.186 135.96 L 162.631 140.395 L 162.631 111.063 L 140.911 65.331 L 158.687 60.567 L 158.687 60.567 Z M 43.376 172.35 L 22.433 177.962 L 22.433 97.077 L 43.82 91.346 L 43.82 91.346 C 53.264 88.815 60.791 89.798 66.402 94.295 L 66.402 94.295 L 66.402 94.295 C 72.013 98.791 74.874 106.246 74.985 116.66 L 74.985 116.66 L 74.985 129.77 L 74.985 129.77 C 74.985 140.4 72.18 149.494 66.569 157.052 L 66.569 157.052 L 66.569 157.052 C 60.958 164.611 53.227 169.71 43.376 172.35 L 43.376 172.35 L 43.376 172.35 Z M 44.709 104.718 L 38.765 106.311 L 38.765 160.03 L 43.654 158.72 L 43.654 158.72 C 49.098 157.262 52.931 154.8 55.154 151.334 L 55.154 151.334 L 55.154 151.334 C 57.376 147.868 58.542 142.602 58.652 135.536 L 58.652 135.536 L 58.652 121.481 L 58.652 121.481 C 58.652 113.926 57.597 108.941 55.486 106.525 L 55.486 106.525 L 55.486 106.525 C 53.376 104.109 49.783 103.507 44.709 104.718 L 44.709 104.718 L 44.709 104.718 Z M 42.762 77.174 L 37.834 78.495 L 37.834 78.495 C 37.549 77.946 37.343 76.948 37.218 75.5 L 37.218 75.5 L 37.218 75.5 C 35.54 78.414 33.397 80.22 30.79 80.918 L 30.79 80.918 L 30.79 80.918 C 28.165 81.621 26.116 81.434 24.642 80.355 L 24.642 80.355 L 24.642 80.355 C 23.169 79.277 22.433 77.399 22.433 74.72 L 22.433 74.72 L 22.433 74.72 C 22.433 71.774 23.433 69.167 25.433 66.899 L 25.433 66.899 L 25.433 66.899 C 27.432 64.632 30.173 63.013 33.656 62.044 L 33.656 62.044 L 37.137 61.112 L 37.137 58.032 L 37.137 58.032 C 37.137 56.299 36.753 55.17 35.985 54.644 L 35.985 54.644 L 35.985 54.644 C 35.218 54.118 34.048 54.065 32.477 54.485 L 32.477 54.485 L 32.477 54.485 C 31.049 54.868 29.888 55.603 28.995 56.691 L 28.995 56.691 L 28.995 56.691 C 28.102 57.779 27.655 58.974 27.655 60.277 L 27.655 60.277 L 22.916 61.547 L 22.916 61.547 C 22.916 60.065 23.353 58.533 24.228 56.95 L 24.228 56.95 L 24.228 56.95 C 25.103 55.368 26.281 53.994 27.763 52.829 L 27.763 52.829 L 27.763 52.829 C 29.245 51.664 30.897 50.838 32.718 50.349 L 32.718 50.349 L 32.718 50.349 C 35.682 49.556 37.937 49.688 39.481 50.747 L 39.481 50.747 L 39.481 50.747 C 41.026 51.807 41.816 53.742 41.852 56.553 L 41.852 56.553 L 41.852 71.178 L 41.852 71.178 C 41.869 73.405 42.173 75.261 42.762 76.746 L 42.762 76.746 L 42.762 77.174 L 42.762 77.174 Z M 31.512 76.412 L 31.512 76.412 L 31.512 76.412 C 32.673 76.102 33.781 75.484 34.834 74.558 L 34.834 74.558 L 34.834 74.558 C 35.888 73.633 36.656 72.624 37.137 71.531 L 37.137 71.531 L 37.137 64.62 L 34.459 65.338 L 34.459 65.338 C 32.209 65.976 30.432 66.957 29.129 68.28 L 29.129 68.28 L 29.129 68.28 C 27.825 69.602 27.174 71.138 27.174 72.888 L 27.174 72.888 L 27.174 72.888 C 27.174 74.531 27.504 75.634 28.165 76.198 L 28.165 76.198 L 28.165 76.198 C 28.825 76.762 29.941 76.834 31.512 76.412 Z M 56.021 73.622 L 51.28 74.892 L 51.28 49.742 L 47.503 50.754 L 47.503 46.924 L 51.28 45.912 L 51.28 42.564 L 51.28 42.564 C 51.333 39.604 52.078 37.105 53.516 35.067 L 53.516 35.067 L 53.516 35.067 C 54.953 33.031 56.985 31.661 59.61 30.957 L 59.61 30.957 L 59.61 30.957 C 60.556 30.704 61.511 30.6 62.476 30.645 L 62.476 30.645 L 62.234 34.727 L 62.234 34.727 C 61.555 34.748 60.832 34.862 60.064 35.067 L 60.064 35.067 L 60.064 35.067 C 57.369 35.79 56.021 38.07 56.021 41.91 L 56.021 41.91 L 56.021 44.641 L 60.976 43.313 L 60.976 47.144 L 56.021 48.472 L 56.021 73.622 L 56.021 73.622 Z M 81.438 66.811 L 81.331 64.296 L 81.331 64.296 C 79.76 66.77 77.465 68.412 74.448 69.22 L 74.448 69.22 L 74.448 69.22 C 71.823 69.924 69.841 69.548 68.502 68.095 L 68.502 68.095 L 68.502 68.095 C 67.163 66.641 66.484 64.185 66.466 60.725 L 66.466 60.725 L 66.466 41.843 L 71.181 40.58 L 71.181 59.114 L 71.181 59.114 C 71.181 63.631 72.538 65.527 75.252 64.8 L 75.252 64.8 L 75.252 64.8 C 78.127 64.03 80.109 62.213 81.198 59.349 L 81.198 59.349 L 81.198 37.896 L 85.939 36.625 L 85.939 65.606 L 81.438 66.811 L 81.438 66.811 Z M 114.008 41.826 L 114.008 44.987 L 114.008 44.987 C 114.008 49.576 113.182 53.216 111.53 55.909 L 111.53 55.909 L 111.53 55.909 C 109.879 58.601 107.544 60.352 104.527 61.161 L 104.527 61.161 L 104.527 61.161 C 101.616 61.941 99.376 61.443 97.804 59.667 L 97.804 59.667 L 97.804 73.568 L 93.09 74.831 L 93.09 34.708 L 97.375 33.561 L 97.616 36.71 L 97.616 36.71 C 99.206 33.784 101.482 31.924 104.446 31.13 L 104.446 31.13 L 104.446 31.13 C 107.624 30.279 109.999 30.75 111.571 32.543 L 111.571 32.543 L 111.571 32.543 C 113.142 34.336 113.955 37.43 114.008 41.826 L 114.008 41.826 L 114.008 41.826 Z M 109.294 46.438 L 109.294 43.544 L 109.294 43.544 C 109.294 40.295 108.794 38.032 107.794 36.755 L 107.794 36.755 L 107.794 36.755 C 106.794 35.478 105.187 35.136 102.974 35.73 L 102.974 35.73 L 102.974 35.73 C 100.705 36.337 98.982 37.933 97.804 40.517 L 97.804 40.517 L 97.804 55.596 L 97.804 55.596 C 98.965 57.5 100.706 58.14 103.027 57.518 L 103.027 57.518 L 103.027 57.518 C 105.169 56.944 106.745 55.749 107.754 53.934 L 107.754 53.934 L 107.754 53.934 C 108.763 52.119 109.276 49.621 109.294 46.438 L 109.294 46.438 L 109.294 46.438 Z"
     id="path72" />
  <text
     x="23.340368"
     y="228.3564"
     style="font-size:38px;font-family:'Roboto Condensed';text-transform:uppercase;fill:#ffffff"
     id="text74"
     transform="matrix(1.0352762,-0.25881905,0,0.96592581,0,0)">2019</text>
</svg>
